src/assets/tokens/stTAO.svg

<svg width="326" height="326" fill="none" xmlns="http://www.w3.org/2000/svg"><circle cx="163" cy="163" r="163" fill="#D9D9D9"/><path fill-rule="evenodd" clip-rule="evenodd" d="M197.283 275.147c29.056-13.168 49.319-42.444 49.319-76.364 0-16.586-10.552-40.891-24.085-65.242-.02 6.765-2.746 13.251-7.587 18.052-4.86 4.819-11.458 7.548-18.354 7.593h-42.825a27.327 27.327 0 0 1 18.415 7.943 27.361 27.361 0 0 1 8.058 19.216v59.928h.007c0 17.464 1.616 26.968 17.38 28.638a67.05 67.05 0 0 1-.328.236zm-15.222 5.193a83.769 83.769 0 0 1-19.261 2.233c-46.205 0-83.8-37.586-83.8-83.782 0-10.682 4.378-24.567 11.111-39.605h62.808v95.76a25.086 25.086 0 0 0 16.139 23.73 25.04 25.04 0 0 0 9.979 1.62 28.28 28.28 0 0 0 3.024.044zm-63.327-146.875h103.74c-23.384-42.058-55.637-84.228-57.755-86.98L162.8 44l-1.918 2.5c-2.344 3.045-41.693 54.496-64.976 100.56 1.277-2.207 2.725-4.268 4.474-6.002 4.86-4.819 11.458-7.548 18.354-7.593z" fill="#000"/></svg>

<svg width="326" height="326" viewBox="0 0 326 326" fill="none" xmlns="http://www.w3.org/2000/svg">
<circle cx="163" cy="163" r="163" fill="#D9D9D9"/>
<path fill-rule="evenodd" clip-rule="evenodd" d="M197.283 275.147C226.339 261.979 246.602 232.703 246.602 198.783C246.602 182.197 236.05 157.892 222.517 133.541C222.497 140.306 219.771 146.792 214.93 151.593C210.07 156.412 203.472 159.141 196.576 159.186H153.751C160.663 159.403 167.248 162.236 172.166 167.129C177.281 172.219 180.177 179.127 180.224 186.345V246.273H180.231C180.231 263.737 181.847 273.241 197.611 274.911C197.502 274.99 197.392 275.069 197.283 275.147ZM182.061 280.34C175.875 281.8 169.426 282.573 162.8 282.573C116.595 282.573 79.0009 244.987 79 198.791C79 188.109 83.3783 174.224 90.1114 159.186H152.919V254.946C152.879 258.353 153.533 261.732 154.842 264.878C156.15 268.023 158.086 270.869 160.53 273.241C162.974 275.614 165.876 277.463 169.058 278.676C172.24 279.889 175.635 280.44 179.037 280.296C180.048 280.365 181.057 280.379 182.061 280.34ZM118.734 133.465H222.474C199.09 91.4075 166.837 49.2371 164.719 46.4843L162.8 44L160.882 46.5006C158.538 49.5452 119.189 100.996 95.9058 147.06C97.1828 144.853 98.6314 142.792 100.38 141.058C105.24 136.239 111.838 133.51 118.734 133.465Z" fill="black"/>
</svg>
